src/assets/img/sponsors/route_4_me.svg

<svg width="150" height="36" viewBox="0 0 150 36" fill="none" xmlns="http://www.w3.org/2000/svg">
<path fill-rule="evenodd" clip-rule="evenodd" d="M38.9337 13.4895H41.1147C41.4378 13.4895 41.8417 13.4895 42.1648 13.4895C42.5686 13.4895 42.8917 13.4087 43.2148 13.2472C43.5379 13.0856 43.7803 12.9241 43.9418 12.6818C44.1034 12.4394 44.2649 12.0355 44.2649 11.6317C44.2649 11.2278 44.1841 10.8239 44.0226 10.5816C43.861 10.3393 43.6187 10.0969 43.3764 10.0162C43.1341 9.85461 42.811 9.77384 42.4879 9.77384C42.1648 9.69306 41.7609 9.69306 41.4378 9.69306H39.0145V13.4895H38.9337ZM35.2181 6.46204H41.7609C42.6494 6.46204 43.4572 6.54282 44.1841 6.70437C44.9919 6.86592 45.6381 7.18902 46.2035 7.51212C46.769 7.916 47.2536 8.40065 47.5767 9.12763C47.8998 9.77384 48.0614 10.6624 48.0614 11.6317C48.0614 12.8433 47.7383 13.8934 47.0921 14.7011C46.4459 15.5089 45.5573 16.0743 44.3457 16.3166L48.6268 23.5057H44.1841L40.63 16.7205H38.7722V23.5057H35.0565V6.46204H35.2181Z" fill="#425277"/>
<path fill-rule="evenodd" clip-rule="evenodd" d="M53.3926 17.6091C53.3926 18.4976 53.6349 19.2246 54.1195 19.79C54.6042 20.3554 55.3312 20.5977 56.2197 20.5977C57.1082 20.5977 57.8352 20.3554 58.3199 19.79C58.8045 19.2246 59.0468 18.4976 59.0468 17.6091C59.0468 16.7205 58.8045 15.9935 58.3199 15.4281C57.8352 14.8627 57.1082 14.6204 56.2197 14.6204C55.3312 14.6204 54.6042 14.8627 54.1195 15.4281C53.6349 16.0743 53.3926 16.7205 53.3926 17.6091ZM49.8384 17.6091C49.8384 16.6397 50 15.832 50.3231 15.105C50.6462 14.378 51.1308 13.7318 51.6963 13.1664C52.2617 12.601 52.9887 12.1971 53.7157 11.9548C54.5234 11.6317 55.3312 11.5509 56.2197 11.5509C57.1082 11.5509 57.916 11.7124 58.7237 11.9548C59.5315 12.2779 60.1777 12.6818 60.7431 13.1664C61.3086 13.7318 61.7932 14.378 62.1163 15.105C62.4394 15.832 62.601 16.7205 62.601 17.6091C62.601 18.5784 62.4394 19.3861 62.1163 20.1131C61.7932 20.8401 61.3086 21.4863 60.7431 22.0517C60.1777 22.6171 59.4507 23.021 58.7237 23.2633C57.916 23.5864 57.1082 23.6672 56.2197 23.6672C55.3312 23.6672 54.5234 23.5057 53.7157 23.2633C52.9079 22.9402 52.2617 22.5364 51.6963 22.0517C51.1308 21.4863 50.6462 20.8401 50.3231 20.1131C50 19.3861 49.8384 18.5784 49.8384 17.6091Z" fill="#425277"/>
<path fill-rule="evenodd" clip-rule="evenodd" d="M75.929 23.5057H72.4556V21.8902H72.3748C72.2133 22.1325 72.0517 22.3748 71.8902 22.5364C71.7286 22.7787 71.4863 22.9403 71.1632 23.1826C70.8401 23.3441 70.517 23.5057 70.1939 23.5865C69.79 23.6672 69.4669 23.748 68.9823 23.748C68.0937 23.748 67.3668 23.5865 66.8013 23.3441C66.2359 23.1018 65.832 22.6979 65.5089 22.2133C65.1858 21.7286 65.0243 21.1632 64.8627 20.4362C64.782 19.79 64.7012 19.063 64.7012 18.2553V11.7932H68.2553V17.5283C68.2553 17.8514 68.2553 18.1745 68.2553 18.5784C68.2553 18.9015 68.3361 19.3054 68.4976 19.5477C68.6592 19.79 68.8207 20.1131 69.063 20.2747C69.3054 20.4362 69.6285 20.5978 70.1131 20.5978C70.5978 20.5978 70.9209 20.517 71.244 20.3554C71.5671 20.1939 71.7286 19.9516 71.8902 19.7092C72.0517 19.4669 72.1325 19.1438 72.2133 18.7399C72.2941 18.4168 72.2941 18.013 72.2941 17.6091V11.7932H75.929V23.5057Z" fill="#425277"/>
<path fill-rule="evenodd" clip-rule="evenodd" d="M86.3489 14.7011H83.1987V18.5784C83.1987 18.9015 83.1987 19.2246 83.2794 19.4669C83.2794 19.7092 83.3602 19.9515 83.5218 20.1131C83.6026 20.2746 83.7641 20.4362 84.0064 20.5977C84.2488 20.6785 84.5719 20.7593 84.895 20.7593C85.0565 20.7593 85.2988 20.7593 85.6219 20.6785C85.945 20.6785 86.1874 20.517 86.3489 20.4362V23.4249C85.945 23.5864 85.5412 23.6672 85.1373 23.748C84.7334 23.8288 84.2488 23.8288 83.8449 23.8288C83.2795 23.8288 82.714 23.748 82.1486 23.6672C81.6639 23.5057 81.1793 23.3441 80.7754 23.021C80.3715 22.7787 80.1292 22.3748 79.8869 21.8902C79.6446 21.4055 79.5638 20.9208 79.5638 20.2746V14.7011H77.3021V11.7932H79.5638V8.31988H83.1179V11.7932H86.2681V14.7011H86.3489Z" fill="#425277"/>
<path fill-rule="evenodd" clip-rule="evenodd" d="M96.1228 16.3166C96.1228 15.6704 95.9612 15.1858 95.5573 14.7819C95.1535 14.378 94.588 14.1357 93.9418 14.1357C93.5379 14.1357 93.2148 14.2165 92.8917 14.2973C92.5686 14.4588 92.3263 14.6204 92.084 14.7819C91.8417 15.0242 91.6801 15.1858 91.5993 15.5089C91.5186 15.7512 91.4378 16.0743 91.357 16.3166H96.1228ZM99.1922 21.4863C98.6268 22.2133 97.8998 22.7787 97.0113 23.1826C96.1228 23.5864 95.2342 23.748 94.2649 23.748C93.3764 23.748 92.5686 23.5864 91.7609 23.3441C90.9531 23.021 90.3069 22.6171 89.7415 22.1325C89.1761 21.567 88.6914 20.9208 88.3683 20.1939C88.0452 19.4669 87.8837 18.5784 87.8837 17.6898C87.8837 16.7205 88.0452 15.9128 88.3683 15.1858C88.6914 14.4588 89.1761 13.8126 89.7415 13.2472C90.3069 12.6817 91.0339 12.2779 91.7609 12.0355C92.5686 11.7124 93.3764 11.6317 94.2649 11.6317C95.0727 11.6317 95.8804 11.7932 96.5266 12.0355C97.1728 12.3586 97.7383 12.7625 98.2229 13.2472C98.7076 13.8126 99.0307 14.4588 99.273 15.1858C99.5153 15.9128 99.6769 16.8013 99.6769 17.6898V18.8207H91.357C91.5186 19.5477 91.8417 20.0323 92.3263 20.4362C92.811 20.8401 93.3764 21.0824 94.1034 21.0824C94.6688 21.0824 95.1535 20.9208 95.5573 20.6785C95.9612 20.4362 96.2843 20.0323 96.6074 19.6284L99.1922 21.4863Z" fill="#425277"/>
<path fill-rule="evenodd" clip-rule="evenodd" d="M108.562 11.147L104.766 17.0436H108.562V11.147ZM108.562 20.1131H101.212V17.0436L108.078 6.46205H111.955V17.0436H114.136V20.1131H111.955V23.5057H108.481V20.1131H108.562Z" fill="#FFC63C"/>
<path fill-rule="evenodd" clip-rule="evenodd" d="M116.478 6.46205H122.052L126.01 17.6091L129.968 6.46205H135.541V23.5057H131.826V10.42H131.745L127.302 23.5057H124.475L120.194 10.42V23.5057H116.478V6.46205Z" fill="#425277"/>
<path fill-rule="evenodd" clip-rule="evenodd" d="M146.446 16.3166C146.446 15.6704 146.284 15.1858 145.88 14.7819C145.477 14.378 144.911 14.1357 144.265 14.1357C143.861 14.1357 143.538 14.2165 143.215 14.2973C142.892 14.4588 142.649 14.6204 142.407 14.7819C142.165 15.0242 142.003 15.1858 141.922 15.5089C141.842 15.7512 141.761 16.0743 141.68 16.3166H146.446ZM149.515 21.4863C148.95 22.2133 148.223 22.7787 147.334 23.1826C146.446 23.5864 145.557 23.748 144.588 23.748C143.7 23.748 142.892 23.5864 142.084 23.3441C141.276 23.021 140.63 22.6171 140.065 22.1325C139.499 21.567 139.015 20.9208 138.691 20.1939C138.368 19.4669 138.207 18.5784 138.207 17.6898C138.207 16.7205 138.368 15.9128 138.691 15.1858C139.015 14.4588 139.499 13.8126 140.065 13.2472C140.63 12.6817 141.357 12.2779 142.084 12.0355C142.892 11.7124 143.7 11.6317 144.588 11.6317C145.396 11.6317 146.204 11.7932 146.85 12.0355C147.496 12.3586 148.061 12.7625 148.546 13.2472C149.031 13.8126 149.354 14.4588 149.596 15.1858C149.838 15.9128 150 16.8013 150 17.6898V18.8207H141.68C141.842 19.5477 142.165 20.0323 142.649 20.4362C143.134 20.8401 143.7 21.0824 144.426 21.0824C144.992 21.0824 145.477 20.9208 145.88 20.6785C146.284 20.4362 146.607 20.0323 146.931 19.6284L149.515 21.4863Z" fill="#425277"/>
<path fill-rule="evenodd" clip-rule="evenodd" d="M28.1906 1.53473C28.1906 0.646204 28.9176 0 29.7253 0C30.6139 0 31.2601 0.726979 31.2601 1.53473C31.2601 2.42326 30.5331 3.06947 29.7253 3.06947C28.9176 3.15024 28.1906 2.42326 28.1906 1.53473Z" fill="#FF6400"/>
<path fill-rule="evenodd" clip-rule="evenodd" d="M0 1.53473C0 0.726979 0.726979 0 1.53473 0C2.42326 0 3.15024 0.726979 3.15024 1.53473C3.15024 2.42326 2.42326 3.15024 1.53473 3.15024C0.726979 3.15024 0 2.42326 0 1.53473Z" fill="#FF6400"/>
<path fill-rule="evenodd" clip-rule="evenodd" d="M22.2941 33.6834C22.2941 32.7948 23.021 32.1486 23.8288 32.1486C24.7173 32.1486 25.3635 32.8756 25.3635 33.6834C25.3635 34.5719 24.6366 35.2181 23.8288 35.2181C23.021 35.2181 22.2941 34.5719 22.2941 33.6834Z" fill="#FF6400"/>
<path fill-rule="evenodd" clip-rule="evenodd" d="M20.0323 6.62363C20.2746 6.86595 20.2746 7.18906 20.0323 7.35061L17.3667 10.0162C17.1244 10.2585 17.2051 10.4201 17.5283 10.5816C19.063 11.1471 20.2746 12.3587 20.7593 13.8126C20.84 14.055 21.0824 14.1357 21.3247 13.9742L23.9903 11.3086C24.2326 11.0663 24.5557 11.0663 24.7173 11.3086L27.0598 13.6511C27.3021 13.8934 27.4636 13.8126 27.4636 13.4895V4.20036C27.4636 4.03881 27.3829 3.95804 27.2213 3.95804H17.8514C17.5282 3.95804 17.5282 4.11959 17.6898 4.36191L20.0323 6.62363ZM13.7318 10.5008C13.9741 10.4201 14.0549 10.1777 13.8934 9.93542L11.2278 7.26983C10.9854 7.0275 10.9854 6.7044 11.2278 6.54285L13.5703 4.20036C13.8126 3.95804 13.7318 3.79649 13.4087 3.79649H4.2003C4.03875 3.95804 3.8772 4.03881 3.8772 4.20036V13.4895C3.8772 13.8126 4.03875 13.8126 4.28107 13.6511L6.62356 11.3086C6.86589 11.0663 7.18899 11.0663 7.35054 11.3086L10.0161 13.9742C10.2585 14.2165 10.42 14.1357 10.5816 13.8126C11.0662 12.2779 12.2778 11.0663 13.7318 10.5008ZM15.9127 21.1632C15.5896 21.1632 15.5089 21.4055 15.5896 21.6479L17.1244 25.0404C17.2051 25.2828 17.1244 25.6059 16.882 25.7674L13.8934 27.1406C13.651 27.3021 13.651 27.4637 13.8934 27.5445L22.6171 30.6947C22.7787 30.7755 22.9402 30.6947 22.9402 30.5332L26.1712 21.8094C26.252 21.5671 26.1712 21.4055 25.8481 21.5671L22.8594 22.9403C22.6171 23.1018 22.294 22.9403 22.1324 22.6979L20.4362 19.063C20.3554 18.8207 20.1131 18.8207 19.9515 18.9823C19.4669 19.6285 18.8207 20.1939 18.0129 20.5978C17.5282 20.8401 16.882 21.0017 16.3166 21.0824C16.3166 21.0824 16.0743 21.1632 15.9127 21.1632Z" fill="#FFC63C"/>
<path fill-rule="evenodd" clip-rule="evenodd" d="M11.7124 15.6705C11.7124 13.4895 13.4895 11.7932 15.5896 11.7932C17.7706 11.7932 19.4668 13.5703 19.4668 15.6705C19.4668 17.8514 17.6898 19.6285 15.5896 19.6285C13.4895 19.5477 11.7124 17.8514 11.7124 15.6705Z" fill="#FF6400"/>
</svg>

<svg xmlns="http://www.w3.org/2000/svg" width="150" height="36" fill="none">
  <path fill="#425277" fill-rule="evenodd" d="M38.934 13.49h3.23c.405 0 .728-.081 1.05-.243.324-.161.566-.323.728-.565a2 2 0 0 0 .323-1.05c0-.404-.08-.808-.242-1.05-.162-.243-.404-.485-.647-.566-.242-.161-.565-.242-.888-.242-.323-.08-.727-.08-1.05-.08h-2.424v3.795zm-3.716-7.028h6.543q1.332 0 2.423.242c.808.162 1.454.485 2.02.808.565.404 1.05.889 1.373 1.616.323.646.484 1.534.484 2.504 0 1.211-.323 2.261-.969 3.07-.646.807-1.535 1.372-2.746 1.615l4.28 7.189h-4.442L40.63 16.72h-1.858v6.785h-3.715V6.462zM53.393 17.61q0 1.332.727 2.18c.484.565 1.211.808 2.1.808.888 0 1.615-.243 2.1-.808q.727-.848.727-2.18 0-1.335-.727-2.182c-.485-.565-1.212-.808-2.1-.808s-1.616.243-2.1.808c-.485.646-.727 1.293-.727 2.181m-3.555 0c0-.97.162-1.778.485-2.505s.808-1.373 1.373-1.939c.566-.565 1.293-.969 2.02-1.211.807-.323 1.615-.404 2.504-.404.888 0 1.696.161 2.504.404a7 7 0 0 1 2.02 1.211c.565.566 1.05 1.212 1.372 1.939s.485 1.616.485 2.504c0 .97-.162 1.777-.485 2.504s-.807 1.373-1.373 1.939c-.565.565-1.292.969-2.02 1.211-.807.323-1.615.404-2.503.404s-1.697-.161-2.504-.404a7 7 0 0 1-2.02-1.211c-.565-.566-1.05-1.212-1.373-1.939s-.485-1.535-.485-2.504m26.091 5.898h-3.473V21.89h-.081c-.162.242-.323.485-.485.646-.161.243-.404.404-.727.647-.323.161-.646.323-.97.404-.403.08-.726.161-1.21.161-.89 0-1.616-.162-2.182-.404s-.969-.646-1.292-1.13c-.323-.485-.485-1.05-.646-1.778a17 17 0 0 1-.162-2.18v-6.463h3.554v6.785c0 .323.081.727.243.97.161.242.323.565.565.727a1.8 1.8 0 0 0 1.05.323c.485 0 .808-.081 1.131-.243s.485-.403.646-.646c.162-.242.242-.565.323-.97.081-.322.081-.726.081-1.13v-5.816h3.635zm10.42-8.805h-3.15v3.877c0 .323 0 .647.08.889 0 .242.081.485.243.646q.12.242.484.485c.243.08.566.161.889.161.162 0 .404 0 .727-.08.323 0 .565-.162.727-.243v2.989c-.404.161-.808.242-1.212.323-.404.08-.888.08-1.292.08-.566 0-1.131-.08-1.696-.16-.485-.162-.97-.324-1.374-.647-.404-.242-.646-.646-.888-1.13-.242-.485-.323-.97-.323-1.616V14.7h-2.262v-2.908h2.262V8.32h3.554v3.473h3.15v2.908zm9.774 1.616c0-.647-.162-1.131-.566-1.535a2.26 2.26 0 0 0-1.615-.646c-.404 0-.727.08-1.05.161a7 7 0 0 0-.808.485c-.242.242-.404.404-.485.727-.08.242-.161.565-.242.808zm3.07 5.17a5.7 5.7 0 0 1-2.182 1.696c-.888.403-1.777.565-2.746.565-.889 0-1.696-.162-2.504-.404a7 7 0 0 1-2.02-1.212c-.565-.565-1.05-1.211-1.373-1.938s-.484-1.616-.484-2.504c0-.97.161-1.777.484-2.504s.808-1.373 1.374-1.939c.565-.565 1.292-.97 2.019-1.211.808-.324 1.615-.404 2.504-.404a6.6 6.6 0 0 1 2.262.404 6.5 6.5 0 0 1 1.696 1.211c.485.566.808 1.212 1.05 1.939s.404 1.615.404 2.504v1.13h-8.32c.162.728.485 1.212.97 1.616.484.404 1.05.646 1.776.646a2.8 2.8 0 0 0 1.454-.404c.404-.242.727-.646 1.05-1.05z" clip-rule="evenodd"/>
  <path fill="#FFC63C" fill-rule="evenodd" d="m108.562 11.147-3.796 5.897h3.796zm0 8.966h-7.35v-3.07l6.866-10.58h3.877v10.58h2.181v3.07h-2.181v3.393h-3.474v-3.393z" clip-rule="evenodd"/>
  <path fill="#425277" fill-rule="evenodd" d="M116.478 6.462h5.574l3.958 11.147 3.958-11.147h5.573v17.044h-3.715V10.42h-.081l-4.443 13.086h-2.827l-4.281-13.086v13.086h-3.716zm29.968 9.855c0-.647-.162-1.131-.566-1.535a2.25 2.25 0 0 0-1.615-.646c-.404 0-.727.08-1.05.161a7 7 0 0 0-.808.485c-.242.242-.404.404-.485.727-.08.242-.161.565-.242.808zm3.069 5.17a5.7 5.7 0 0 1-2.181 1.696c-.888.403-1.777.565-2.746.565-.888 0-1.696-.162-2.504-.404a7 7 0 0 1-2.019-1.212c-.566-.565-1.05-1.211-1.374-1.938-.323-.727-.484-1.616-.484-2.504 0-.97.161-1.777.484-2.504.324-.727.808-1.373 1.374-1.939.565-.565 1.292-.97 2.019-1.211.808-.324 1.616-.404 2.504-.404.808 0 1.616.161 2.262.404a6.5 6.5 0 0 1 1.696 1.211c.485.566.808 1.212 1.05 1.939S150 16.8 150 17.69v1.13h-8.32c.162.728.485 1.212.969 1.616a2.66 2.66 0 0 0 1.777.646 2.8 2.8 0 0 0 1.454-.404c.404-.242.727-.646 1.051-1.05z" clip-rule="evenodd"/>
  <path fill="#FF6400" fill-rule="evenodd" d="M28.19 1.535a1.535 1.535 0 1 1 1.536 1.534c-.807.081-1.534-.646-1.534-1.534M0 1.535C0 .727.727 0 1.535 0 2.423 0 3.15.727 3.15 1.535A1.62 1.62 0 0 1 1.535 3.15C.727 3.15 0 2.423 0 1.535m22.294 32.148c0-.888.727-1.534 1.535-1.534.888 0 1.534.727 1.534 1.534 0 .889-.726 1.535-1.534 1.535a1.534 1.534 0 0 1-1.535-1.535" clip-rule="evenodd"/>
  <path fill="#FFC63C" fill-rule="evenodd" d="M20.032 6.624c.243.242.243.565 0 .727l-2.665 2.665c-.243.242-.162.404.161.566 1.535.565 2.747 1.777 3.231 3.23.081.243.323.324.566.162l2.665-2.665c.243-.243.566-.243.727 0l2.343 2.342c.242.242.404.162.404-.162V4.2q0-.242-.243-.242h-9.37c-.323 0-.323.162-.161.404zm-6.3 3.877c.242-.08.323-.323.161-.566L11.228 7.27c-.243-.242-.243-.566 0-.727L13.57 4.2c.243-.242.162-.404-.161-.404H4.2c-.161.162-.323.243-.323.404v9.29c0 .323.162.323.404.161l2.343-2.342c.242-.243.565-.243.727 0l2.665 2.665c.242.242.404.162.566-.161.484-1.535 1.696-2.747 3.15-3.312m2.18 10.662c-.322 0-.403.242-.322.485l1.534 3.392a.65.65 0 0 1-.242.727l-2.989 1.374c-.242.161-.242.323 0 .404l8.724 3.15c.162.08.323 0 .323-.162l3.231-8.724c.081-.242 0-.404-.323-.242L22.86 22.94c-.242.162-.565 0-.727-.242l-1.696-3.635c-.08-.242-.323-.242-.485-.08a5.5 5.5 0 0 1-1.938 1.615c-.485.242-1.131.404-1.696.484 0 0-.243.081-.404.081" clip-rule="evenodd"/>
  <path fill="#FF6400" fill-rule="evenodd" d="M11.712 15.67a3.878 3.878 0 0 1 7.755 0c0 2.181-1.777 3.958-3.877 3.958-2.1-.08-3.878-1.777-3.878-3.957" clip-rule="evenodd"/>
</svg>
